include/LD/assets/icons/utility/layout.svg

<?xml version="1.0"?><svg xmlns="http://www.w3.org/2000/svg" width="52" height="52" viewBox="0 0 52 52"><path fill="#fff" d="m48 50h-44c-1.1 0-2-0.9-2-2v-44c0-1.1 0.9-2 2-2h44c1.1 0 2 0.9 2 2v44c0 1.1-0.9 2-2 2z m-42-4h40v-40h-40v40z m33-26h-26c-0.6 0-1-0.4-1-1v-6c0-0.6 0.4-1 1-1h26c0.6 0 1 0.4 1 1v6c0 0.6-0.4 1-1 1z m-20 20h-6c-0.6 0-1-0.4-1-1v-12c0-0.6 0.4-1 1-1h6c0.6 0 1 0.4 1 1v12c0 0.6-0.4 1-1 1z m20 0h-12c-0.6 0-1-0.4-1-1v-12c0-0.6 0.4-1 1-1h12c0.6 0 1 0.4 1 1v12c0 0.6-0.4 1-1 1z"></path></svg>

<svg xmlns="http://www.w3.org/2000/svg" x="0px" y="0px"
	 width="52px" height="52px" viewBox="0 0 52 52" enable-background="new 0 0 52 52" xml:space="preserve">
<g>
	<path fill="#FFFFFF" d="M48,50H4c-1.1,0-2-0.9-2-2V4c0-1.1,0.9-2,2-2h44c1.1,0,2,0.9,2,2v44C50,49.1,49.1,50,48,50z M6,46h40V6H6
		V46z"/>
</g>
<g>
	<path fill="#FFFFFF" d="M39,20H13c-0.6,0-1-0.4-1-1v-6c0-0.6,0.4-1,1-1h26c0.6,0,1,0.4,1,1v6C40,19.6,39.6,20,39,20z"/>
</g>
<g>
	<path fill="#FFFFFF" d="M19,40h-6c-0.6,0-1-0.4-1-1V27c0-0.6,0.4-1,1-1h6c0.6,0,1,0.4,1,1v12C20,39.6,19.6,40,19,40z"/>
</g>
<g>
	<path fill="#FFFFFF" d="M39,40H27c-0.6,0-1-0.4-1-1V27c0-0.6,0.4-1,1-1h12c0.6,0,1,0.4,1,1v12C40,39.6,39.6,40,39,40z"/>
</g>
</svg>
